X:1
T:Boogie Woogie
T:CLARENCE â€œPINE TOPâ€ SMITH
T:Edited  by TINY PARHAM
T:BOOGIE  WOOGIE
T:KING OF THE RHYTHM NOVELTIES
T:THE ORIGINAL
T:Public Domain in the EU
T:Public Domain in the EU
T:Public Domain in the EU
T:Public Domain in the EU
C:Clarence Smith
Z:Public Domain in the EU
%%score { ( 1 3 4 ) | 2 }
L:1/8
Q:1/4=160
M:2/2
K:F
V:1 treble nm="Piano"
V:3 treble 
V:4 treble 
V:2 bass 
V:1
"^Lively tempo"!ff!"^A" !///-!A4 c4 | !///-!c4 _e4 | !///-!A4 c4 | !///-!c4 _e4 | !///-!d4 f4 | %5
 !///-!f4 _a4 |{cde} !^!f2 z2 z4 | z !>![fac']2 c [fac']>c[fac']>c | !>![cegb]2 z2 z !>![cegb]2 C | %9
{=B,C} ^C>DF>!>!_A- AG/F/ D>^G, | [A,CF]2 z2 (d/c/B/_A/ G>)[_A,D] | [A,CF]2 z2 z2{CD^DE} !>!F>G || %12
"^B" !>!^G>A- A2 z2{CD^DE} !>!F>=G | !>!^G>A- A2 z2{CD^DE} !>!F>=G | %14
 !>!^G>A- A2 z2{CD^DE} !>!F>=G | !>!^G>A- A2 z2{CD^DE} !>!F>=G | !>!^G>A- A2 z2{CD^DE} !>!F>=G | %17
 !>!^G>A- A2 z2{CD^DE} !>!F>=G | !>!^G>A- A2 z4 | z4 z !>![DFGB]2 [DFGB] | %20
{/^D} !>![EGB]2 z2 z !>![=DFGB]2 z | _A>^CD>F A(G/F/) D>_A, | !>![A,CF]2 z2 !>!_A(G/F/) D>_A, | %23
 !>![A,CF]2 z2 z2 z3/2 ^G/ ||"^C" A>[fa][_eg]>G [df]>F[ce]>^G | A>[fa][_eg]>G [df]>F[ce]>^G | %26
 A>[fa][_eg]>G [df]>F[ce]>^G | A>[fa][_eg]>G [df]>F[ce]>^c | d>[bd'][_ac']>c [gb]>B[fa]>^c | %29
 d>[bd'][_ac']>c [gb]>B[fa]>^G | A>[fa][_eg]>G [df]>F[ce]>^G | A>[fa][_eg]>G [df]>F[ce]>^d | %32
 e>[c'e'][bd']>d [ac']>c[gb]>^c | d>[bd'][_ac']>c [gb]>B[da]>c | [Acf]2 [Ac]>[Bd] [Ac]>C[DF_A]>C | %35
 [A,CF]2 z2 z !>![FAcdf]2 z ||"^D" !>![FAcdf]2 z2 z !>![FAcdf]2 z | %37
 !>![FAcdf]2 z2 z !>![FAcdf]2 z | !>![FAcdf]2 z2 z !>![FAcdf]2 z | !>![FAcdf]2 z2 z !>![FAcdf]2 z | %40
 !>![F_Acdf]2 z2 z !>![FAcdf]2 z | !>![F_Acdf]2 z2 z !>![FAcdf]2 z | %42
 !>![F!courtesy!=Acdf]2 z2 z !>![FAcdf]2 z | !>![FAcdf]2 z2 z !>![FAcdf]2 z | %44
 !>![CEGBc]2 z2 z !>![CEGBc]2 z | !>![CDF_A]2 z2 z !>![CDFA]2 z | F !>![cf]2 [cf] [Bd][Bd]G[_Ac] | %47
 [CF!courtesy!=A]2 z4 z2 ||!ff!"^E" [Ac]>[Ac][Ac]>[Ac] [Ac]>[Ac][Ac]>[Ac] | %49
 [EAc]>[EAc][EAc]>[EAc] [EAc]>[EAc][EAc]>[EAc] | [CDF]2 !>!a2 (g>eG>^G) | (A>dF>E) _E2 c>^c | %52
!mf! d>[bd'][_ac']>c [gb]>B[fa]>^c | d>[bd'][_ac']>c [gb]>B[fa]>^G | A>[fa][_eg]>G [df]>F[ce]>^G | %55
 A>[fa][_eg]>G [df]>F[ce]>e | =e>[c'e'][bd']>d [ac']>c[gb]>^c | d>[bd'][_ac']>c [gb]>B[da]>c | %58
 !>![Acf]2 z2 (d/c/B/_A/ G>)[_A,D] | [A,CF]2 z2 z2{cde} !>!f!>!f- ||"^F" f2 z2 z2{cde} !>!f!>!f- | %61
 f2 z2 z2{cde} !>!f!>!f- | f2 z2 z2{cde} !>!f!>!f- | f2 z2 z2{cde} !>!f!>!f- | %64
 f2 z2 z2{cde} !>!f!>!f- | f2 z2 z2{cde} !>!f!>!f- | f2 z2 z2{cde} !>!f!>!f- | f2 z2 z2 z3/2 ^D/ | %68
 E>[ce] (3([Bd]D[Bd]) [Ac]>C[GB]>^C | D>[Bd][_Ac]>C [GB]>B,[DA]>C | [A,CF]2 z2 _AG/F/ D>_A, | %71
 [A,CF]2 z2 z4 ||!ff!"^G" !///-!A4 _e4 |!8va(!{c'd'e'} (3f'2 f'2 _e'2 (3c'2 e'2 c'2!8va)! | %74
 (3a2 f3 _e ce c2 |!>(! (f2 _d4)!>)! cd |!f! !courtesy!=d>[bd'][_ac']>c [gb]>B[fa]>^c | %77
 d>[bd'][_ac']>c [gb]>B[fa]>^G | A>[fa][_eg]>G [df]>F[ce]>^G | A>[fa][_eg]>G [df]>F[ce]>^d | %80
 e>[c'e'][bd']>d [ac']>c[gb]>^c | d>[bd'][_ac']>c [gb]>B[da]>c | [Acf]2 [Ac]>[Bd] [Ac]>C[DF_A]>C | %83
 [A,CF]2 z2 z !>![FAcdf]2 z ||"^H" !>![FAcdf]2 z2 z !>![FAcdf]2 z | %85
 !>![FAcdf]2 z2 z !>![FAcdf]2 z | !>![FAcdf]2 z2 z !>![FAcdf]2 z | !>![FAcdf]2 z2 z !>![FAcdf]2 z | %88
 !>![F_Acdf]2 z2 z !>![FAcdf]2 z | !>![F_Acdf]2 z2 z !>![FAcdf]2 z | %90
 !>![F!courtesy!=Acdf]2 z2 z !>![FAcdf]2 z | !>![FAcdf]2 z2 z !>![FAcdf]2 z | %92
 !>![CEGBc]2 z2 z !>![CEGBc]2 z | !>![CDF_A]2 z2 z !>![CDFA]2 z | %94
 [!courtesy!=A,CDF] !>![cf]2 [cf] [Bd][_A_d][=Ac][Ac] | %95
 !>![Acdf] !>![Bdeg]2 !>![cdfa]- [cdfa] z z2 |] %96
V:2
"^tremolo" !///-!A,4 C4 | !///-!F,4 _E4 | !///-!F,4 C4 | !///-!F,4 _E4 | !///-!B,4 F4 | %5
 !///-!B,4 _A4 | z3/2 !>![F,,C,]<^G,,[F,,A,,]/ !>![F,,C,]>[F,,C,][F,,D,]>[F,,D,] | %7
 [F,,C,]>[F,,C,]^G,,>[F,,A,,] [F,,C,]>[F,,C,][F,,D,]>[F,,D,] | %8
 [C,G,]>[C,G,][C,A,]>[C,A,] [C,B,]>[C,B,][C,_E,]>[C,=E,] | %9
 [B,,F,]>[B,,F,][B,,G,]>[B,,G,] [B,,F,]>[B,,F,][F,,_A,,]>[F,,A,,] | %10
 [F,,C,]>[F,,C,][F,,D,]>[F,,D,] [F,,C,]>[F,,C,][F,,_A,,]>[F,,=A,,] | %11
 [F,,C,]>[F,,C,][F,,D,]>[F,,D,] [F,,C,]>[F,,C,][F,,_A,,]>[F,,=A,,] || %12
 [F,,C,]>[F,,C,][F,,D,]>[F,,D,] [F,,C,]>[F,,C,][F,,_A,,]>[F,,=A,,] | %13
 [F,,C,]>[F,,C,][F,,D,]>[F,,D,] [F,,C,]>[F,,C,][F,,_A,,]>[F,,=A,,] | %14
 [F,,C,]>[F,,C,][F,,D,]>[F,,D,] [F,,C,]>[F,,C,][F,,_A,,]>[F,,=A,,] | %15
 [F,,C,]>[F,,C,][F,,D,]>[F,,D,] [F,,C,]>[F,,C,][F,,^C,]>[F,,D,] | %16
 [B,,F,]>[B,,F,][B,,G,]>[B,,G,] [B,,F,]>[B,,F,][^B,,C,]>[B,,D,] | %17
 [B,,F,]>[B,,F,][B,,G,]>[B,,G,] [B,,F,]>[B,,F,][F,,_A,,]>[F,,=A,,] | %18
 [F,,C,]>[F,,C,][F,,D,]>[F,,D,] [F,,C,]>[F,,C,][F,,^C,]>[F,,D,] | %19
 [F,,C,]>[F,,C,][F,,D,]>[F,,D,] [F,,C,]>[F,,C,][A,,^D,]>E, | %20
 [C,G,]>[C,G,][C,A,]>[C,A,] [C,G,]>[C,G,][A,,^C,]>[A,,D,] | %21
 [B,,F,]>[B,,F,][B,,G,]>[B,,G,] [B,,F,]>[B,,F,][F,,_A,,]>[F,,A,,] | %22
 [F,,C,]>[F,,C,][F,,D,]>[F,,D,] [F,,C,]>[F,,C,][F,,_A,,]>[F,,A,,] | %23
 [F,,C,]>[F,,C,][F,,D,]>[F,,D,] [F,,C,]>[F,,C,][F,,_A,,]>[F,,A,,] || %24
 [F,,C,]>[F,,C,][F,,D,]>[F,,D,] [F,,C,]>[F,,C,][F,,_A,,]>[F,,=A,,] | %25
 [F,,C,]>[F,,C,][F,,D,]>[F,,D,] [F,,C,]>[F,,C,][F,,_A,,]>[F,,=A,,] | %26
 [F,,C,]>[F,,C,][F,,D,]>[F,,D,] [F,,C,]>[F,,C,][F,,_A,,]>[F,,=A,,] | %27
 [F,,C,]>[F,,C,][F,,D,]>[F,,D,] [F,,_E,]>[F,,E,][F,,C,]>^C, | %28
 [B,,F,]>[B,,F,][B,,G,]>[B,,G,] [B,,F,]>[B,,F,][B,,_D,]>[B,,D,] | %29
 [B,,F,]>[B,,F,][B,,G,]>[B,,G,] [B,,_A,]>[B,,A,][B,,F,]>^G,, | %30
 [F,,C,]>[F,,C,][F,,D,]>[F,,D,] [F,,C,]>[F,,C,][F,,_A,,]>[F,,=A,,] | %31
 [F,,C,]>[F,,C,][F,,D,]>[F,,D,] [F,,_E,]>[F,,E,][F,,C,]>[F,,^C,] | %32
 [C,G,]>[C,G,][C,A,]>[C,A,] [C,G,]>[C,G,][C,E,]>[A,,^C,] | %33
 [B,,F,]>[B,,F,][B,,G,]>[B,,G,] [B,,F,]>[B,,F,][B,,D,]>[B,,D,] | %34
 [F,,C,]>[F,,C,][F,,D,]>[F,,D,] [F,,C,]>[F,,C,][F,,_A,,]>[F,,=A,,] | %35
 [F,,C,]>[F,,C,][F,,D,]>[F,,D,] [F,,C,]2 z2 ||"^shout" F,,,>F,,A,,,>A,, C,,>C,D,,>D, | %37
 F,,>F,D,,>D, C,,>C,A,,,>A,, | F,,,>F,,A,,,>A,, C,,>C,D,,>D, | F,,>F,D,,>D, C,,>C,A,,,>A,, | %40
 B,,,>B,,D,,>D, F,,>F,G,,>G, | _A,,>_A,G,,>G, F,,>F,D,,>D, | F,,,>F,,A,,,>A,, C,,>C,D,,>D, | %43
 F,,>F,D,,>D, C,,>C,A,,,>A,, | C,,>C,E,,>E, G,,>G,E,,>E, | B,,,>B,,D,,>D, F,,>F,D,,>D, | %46
 F,, !>!A,,2 A,, B,,2 =B,,2 | [F,,C,]>[F,,C,][F,,D,]>[F,,D,] [F,,C,]>[F,,C,]_A,,>=A,, || %48
"^L. H."[I:staff -1] F>FF>F F>FF>F | B,>B,B,>B, B,>B, B,3/2 (3(C/4_C/4B,/4) | %50
 A,2[I:staff +1] z2 z4 | z8 | [B,,F,]>[B,,F,][B,,G,]>[B,,G,] [B,,F,]>[B,,F,][B,,_D,]>[B,,D,] | %53
 [B,,F,]>[B,,F,][B,,G,]>[B,,G,] [B,,_A,]>[B,,A,][B,,F,]>^G,, | %54
 [F,,C,]>[F,,C,][F,,D,]>[F,,D,] [F,,C,]>[F,,C,][F,,_A,,]>[F,,A,,] | %55
 [F,,C,]>[F,,C,][F,,D,]>[F,,D,] [F,,_E,]>[F,,E,][F,,C,]>[F,,^C,] | %56
 [C,G,]>[C,G,][C,A,]>[C,A,] [C,G,]>[C,G,][C,E,]>[A,,^C,] | %57
 [B,,F,]>[B,,F,][B,,G,]>[B,,G,] [B,,F,]>[B,,F,][B,,D,]>[B,,D,] | %58
 [F,,C,]>[F,,C,][F,,D,]>[F,,D,] [F,,C,]>[F,,C,][F,,_A,,]>[F,,A,,] | %59
 [F,,C,]>[F,,C,][F,,D,]>[F,,D,] [F,,C,]>[F,,C,][F,,_A,,]>=A,, || %60
 [F,,C,]>[F,,C,][F,,D,]>[F,,D,] [F,,C,]>[F,,C,][F,,_A,,]>[F,,=A,,] | %61
 [F,,C,]>[F,,C,][F,,D,]>[F,,D,] [F,,C,]>[F,,C,]_A,,>=A,, | %62
 [F,,C,]>[F,,C,][F,,D,]>[F,,D,] [F,,C,]>[F,,C,]_A,,>=A,, | %63
 [F,,C,]>[F,,C,][F,,D,]>[F,,D,] [F,,_E,]>[F,,E,][F,,C,]>[F,,^C,] | %64
 [B,,F,]>[B,,F,][B,,G,]>[B,,G,] [B,,F,]>[B,,F,]^C,>D, | %65
 [B,,F,]>[B,,F,][B,,G,]>[B,,G,] [B,,F,]>[B,,F,]_A,,>=A,, | %66
 [F,,C,]>[F,,C,][F,,D,]>[F,,D,] [F,,C,]>[F,,C,]_A,,>=A,, | %67
 [F,,C,]>[F,,C,][F,,D,]>[F,,D,] [F,,C,]>[F,,C,]D,>^D, | %68
 [C,G,]>[C,G,][C,A,]>[C,A,] [C,G,]>[C,G,][C,E,]>[A,,^C,] | %69
 [B,,F,]>[B,,F,][B,,G,]>[B,,G,] [B,,F,]>[B,,F,][B,,D,]>C, | %70
 [F,,C,]>[F,,C,][F,,D,]>[F,,D,] [F,,C,]>[F,,C,][F,,_A,,]>[F,,A,,] | %71
 [F,,C,]>[F,,C,][F,,D,]>[F,,D,] [F,,C,]>[F,,C,][F,,_A,,]>=A,, || !///-!F,4 C4 | %73
"^L.H."!8va(![I:staff -1]{cde} (3f2 f2 _e2 (3c2 e2 c2!8va)! | (3A2 F3 _E CE C2 | %75
[I:staff +1] [F,_E]6 z2 | [B,,F,]>[B,,F,][B,,G,]>[B,,G,] [B,,F,]>[B,,F,][B,,_D,]>[B,,=D,] | %77
 [B,,F,]>[B,,F,][B,,G,]>[B,,G,] [B,,F,]>[B,,F,][B,,D,]>[B,,D,] | %78
 [F,,C,]>[F,,C,][F,,D,]>[F,,D,] [F,,C,]>[F,,C,][F,,_A,,]>[F,,A,,] | %79
 [F,,C,]>[F,,C,][F,,D,]>[F,,D,] [F,,C,]>[F,,C,][F,,_A,,]>=A,, | %80
 [C,G,]>[C,G,][C,A,]>[C,A,] [C,G,]>[C,G,][C,E,]>[A,,^C,] | %81
 [B,,F,]>[B,,F,][B,,G,]>[B,,G,] [B,,F,]>[B,,F,][B,,D,]>[B,,D,] | [F,,C,]>[F,,C,] A,,2 B,,2 C,2 | %83
 [F,,C,]>[F,,C,][F,,D,]>[F,,D,] [F,,C,]>[F,,C,][F,,_A,,]>=A,, || F,,,>F,,A,,,>A,, C,,>C,D,,>D, | %85
 F,,>F,D,,>D, C,,>C,A,,,>A,, | F,,,>F,,A,,,>A,, C,,>C,D,,>D, | F,,>F,D,,>D, C,,>C,A,,,>A,, | %88
 B,,,>B,,D,,>D, F,,>F,G,,>G, | _A,,>_A,G,,>G, F,,>F,D,,>D, | F,,,>F,,A,,,>A,, C,,>C,D,,>D, | %91
 F,,>F,D,,>D, C,,>C,A,,,>A,, | C,,>C,E,,>E, G,,>G,E,,>E, | B,,,>B,,D,,>D, F,,>F,D,,>D, | %94
 F,, !>!A,,2 A,, B,,=B,, C,2 | !>!F, !>!C,2 !>!F,- F, !>!F,,3 |] %96
V:3
 x8 | x8 | x8 | x8 | x8 | x8 | x8 | x8 | x8 | x8 | x8 | x8 || x8 | x8 | x8 | x8 | x8 | x8 | x8 | %19
 x8 | x8 | x8 | x8 | x8 || x8 | x8 | x8 | x8 | x8 | x8 | x8 | x8 | x8 | x8 | x8 | x8 || x8 | x8 | %38
 x8 | x8 | x8 | x8 | x8 | x8 | x8 | x8 | x8 | x8 || x8 | x8 | x8 | x8 | x8 | x8 | x8 | x8 | x8 | %57
 x8 | x8 | x8 || x8 | x8 | x8 | x8 | x8 | x8 | x8 | x8 | x8 | x8 | x8 | x8 || x8 |!8va(! x8!8va)! | %74
 x8 | G6 z2 | x8 | x8 | x8 | x8 | x8 | x8 | x8 | x8 || x8 | x8 | x8 | x8 | x8 | x8 | x8 | x8 | x8 | %93
 x8 | x8 | x8 |] %96
V:4
 x8 | x8 | x8 | x8 | x8 | x8 | x8 | x8 | x8 | x8 | x8 | x8 || x8 | x8 | x8 | x8 | x8 | x8 | x8 | %19
 x8 | x8 | x8 | x8 | x8 || x8 | x8 | x8 | x8 | x8 | x8 | x8 | x8 | x8 | x8 | x8 | x8 || x8 | x8 | %38
 x8 | x8 | x8 | x8 | x8 | x8 | x8 | x8 | x8 | x8 || x8 | x8 | x8 | x8 | x8 | x8 | x8 | x8 | x8 | %57
 x8 | x8 | x8 || x8 | x8 | x8 | x8 | x8 | x8 | x8 | x8 | x8 | x8 | x8 | x8 || x8 |!8va(! x8!8va)! | %74
 x8 | A8 | x8 | x8 | x8 | x8 | x8 | x8 | x8 | x8 || x8 | x8 | x8 | x8 | x8 | x8 | x8 | x8 | x8 | %93
 x8 | x8 | x8 |] %96

